!!!OTL: 109a. Die junge Markgraefin.
!!!ARE: Europa, Mitteleuropa, Deutschland
!!!SCT: E0109
!!!TXL: @@DE
!!!YEM: Copyright 1995, estate of Helmut Schaffrath.
**kern	**text
*ICvox	*
*M4/4	*
*met(c)	*
*k[b-e-a-]	*
*E-:	*
!LO:TX:a:t=Forſter V. 1556. Nr. 3.	!
{4e-	Ach
=1	=1
4e-	Mut-
4f	-ter,
4g	gieb
[4b-/	.
=2	=2
8b-L]	.
8a-J	.
4g	mir
4f	kei-
4f	-nen
=3	=3
2e-	Mann,
4r}	.
{4e-	ich
=4	=4
4b-	leb
4cc	nicht
4dd	län-
4b-	-ger
=5	=5
2ee-	denn
2cc	ein
=6	=6
2b-	Jahr,
2r	.
=7	=7
4r}	.
{4b-	ich
4b-	leb
4ee-	nicht
=8	=8
(4.dd	län-
8cc	.
4b-)	.
4cc	-ger
=9	=9
4.b-/	denn
8a-	ein
2g	Jahr,
=10	=10
4r}	.
{4cc	ſo
4.b-	muß
8a-	ich
=11	=11
4g	ſter-
4e-	.
4f	.
[4b-/	.
=12	=12
8b-/L]	.
8a-J	.
4g	-ben,
4f	das
4f	iſt
=13	=13
2e-	wahr.
4r}	.
==	==
!!!AGN: erzaehlendes Volks - Lied, Sage, Liebe, Leid, Tod, Ballade ?
!!!ONB: ESAC (Essen Associative Code) Database: ERK1
!!!AMT: simple quadruple
!!!AIN: vox
!!!EED: Helmut Schaffrath
!!!EEV: 1.0
!!!GTL: Liebesgeschichten mit tragischem Schluss
!!!URL-scan: https://rosdok.uni-rostock.de/mcrviewer/recordIdentifier/rosdok_ppn745146120/iview2/phys_0451.iview2?x=-422.27491384562836&y=1272.0857493663207&scale=0.554360769283424&rotation=0&layout=singlePageLayout
!!!ENC: Anna Maria Matuszewska
!!!EEV: 2024/02/12
*-	*-
